actions/24/go-down-symbolic.svg

<?xml version="1.0" encoding="UTF-8" standalone="no"?>
<svg
   xmlns:dc="http://purl.org/dc/elements/1.1/"
   xmlns:cc="http://creativecommons.org/ns#"
   xmlns:rdf="http://www.w3.org/1999/02/22-rdf-syntax-ns#"
   xmlns:svg="http://www.w3.org/2000/svg"
   xmlns="http://www.w3.org/2000/svg"
   id="svg6"
   version="1.1"
   width="24"
   height="24">
  <metadata
     id="metadata12">
    <rdf:RDF>
      <cc:Work
         rdf:about="">
        <dc:format>image/svg+xml</dc:format>
        <dc:type
           rdf:resource="http://purl.org/dc/dcmitype/StillImage" />
        <dc:title></dc:title>
      </cc:Work>
    </rdf:RDF>
  </metadata>
  <defs
     id="defs10" />
  <path
     id="path873-5-3-3"
     style="opacity:1;fill:#555761;stroke:none;stroke-width:4;stroke-linecap:round;stroke-linejoin:round;stop-color:#000000"
     d="m 19,12.999978 c 0,-0.554 -0.462541,-0.865639 -1,-1 H 14 V 4 C 14,3.446 13.554,3 13,3 H 10 C 9.446,3 9,3.4460001 9,4 v 7.999978 H 5 c -0.554,0 -1,0.446 -1,1 0,0.298584 0.129747,0.565122 0.335938,0.748047 l 6.478515,6.978256 c 0.179095,0.169083 0.419807,0.273437 0.685547,0.273437 0.265739,0 0.506451,-0.104355 0.685546,-0.273437 l 6.478516,-6.978256 C 18.870252,13.5651 19,13.298562 19,12.999978 Z" />
</svg>

<svg
        xmlns='http://www.w3.org/2000/svg'
        xmlns:svg='http://www.w3.org/2000/svg'
        id='svg6'
        width='24'
        height='24'>
  <path
          id='path873-5-3-3'
          opacity='1'
          fill='url(#gpa:foreground) #555761'
          fill-opacity='1'
          fill-rule='nonzero'
          stroke='none'
          stroke-width='4'
          stroke-linecap='round'
          stroke-linejoin='round'
          d='M 19 13 C 19 12.446, 18.5375 12.1343, 18 12 L 14 12 L 14 4 C 14 3.446, 13.554 3, 13 3 L 10 3 C 9.446 3, 9 3.446, 9 4 L 9 12 L 5 12 C 4.446 12, 4 12.446, 4 13 C 4 13.2986, 4.12975 13.5651, 4.33594 13.748 L 10.8145 20.7263 C 10.9935 20.8954, 11.2343 20.9997, 11.5 20.9997 C 11.7657 20.9997, 12.0065 20.8954, 12.1855 20.7263 L 18.6641 13.748 C 18.8703 13.5651, 19 13.2986, 19 13 Z'
          class="foreground">
  </path>
</svg>
